X:1
T:Title
%%score { ( 1 4 ) | ( 2 3 ) }
L:1/8
Q:1/4=92
M:6/8
K:Ab
V:1 treble nm="Grand Piano"
V:4 treble 
V:2 bass 
V:3 bass 
V:1
 [Ec]3 [DB][DA][DF] | [CE]3 [CA]3 | [Ec]3 [DB][A,FA][DF] | [_C=DF]3 E3 | [Ec]3 cde | e3 G3 | %6
w: Thoro~Harris * * *||||||
 [EB]3 [FA][EG][=DF] | E6 | c3 z3 | [CE]3 [CA]3 | [Ec]3 [EAc][DGB][_Gc] | [Fd]6 | [Fd]3 FGF | %13
w: |||||||
 E3 c3 | [=DB]3 z3 | [CA]6 |] %16
w: |||
V:2
 [A,,E,]3 [A,,F,][A,,F,][A,,A,] | [A,,A,]3 [A,,E,]3 | [A,,_G,]3 [D,F,]D,F, | z3 C3 | %4
 [A,,A,]3[K:treble] [A,E][A,B,E][=A,C_G] | [B,G]3 [B,E]3 | [B,,G,]3 [B,,F,][B,,B,][B,,A,] | %7
 E,3- [E,B,]3 | .[A,,A,]3 [A,,F,][A,,F,][A,,A,] | [A,,A,]3 [A,,E,]3 | .A,3 z3 | [D,A,]6 | %12
 [D,A,]3 [D,A,D][D,A,D][=D,A,_C] | [E,A,C]3 [F,=A,E]3 | .[B,,A,]3 [E,G,D][E,A,D][E,B,D] | %15
 [A,,A,]6 |] %16
V:3
 x6 | x6 | x6 | A,6 | x3[K:treble] x3 | x6 | x6 | G,3 z3 | x6 | x6 | A,,2- [A,,C] C,E,A, | x6 | %12
 x6 | x6 | x6 | x6 |] %16
V:4
 x6 | x6 | x6 | x6 | x6 | x6 | x6 | z3 .D3 | C2 [G,E] [DB][DA][DF] | x6 | x6 | x6 | x6 | x6 | %14
 z2 F, BAG | x6 |] %16

